public/img/mmu/mmu_HappyHare.svg

<svg xmlns="http://www.w3.org/2000/svg" xmlns:xlink="http://www.w3.org/1999/xlink"
    height="100%"
    viewBox="0 0 768 768"
    preserveAspectRatio="xMidYMid meet">
<path d="M 225.984375 660.851562 C 272.371094 660.851562 314.542969 650.433594 349.519531 618.929688 C 362.914062 628.605469 377.796875 634.0625 400.125 634.0625 C 421.210938 634.0625 437.582031 627.117188 466.855469 627.117188 C 493.890625 627.117188 507.289062 634.0625 528.871094 634.0625 C 579.96875 634.0625 597.832031 607.765625 597.832031 578.742188 C 597.832031 531.859375 562.109375 503.828125 490.664062 497.625 C 516.21875 485.222656 539.78125 475.550781 556.15625 469.597656 C 585.921875 489.441406 628.839844 501.347656 660.59375 501.097656 C 727.316406 500.605469 768 479.765625 768 411.050781 C 768 326.710938 704 263.207031 628.589844 262.464844 L 574.511719 189.285156 C 533.335938 133.96875 489.175781 102.960938 432.621094 102.960938 C 388.714844 102.960938 328.929688 127.269531 328.929688 161.75 C 328.929688 190.527344 361.675781 211.113281 393.425781 231.207031 C 430.636719 254.527344 480.992188 283.550781 527.628906 310.589844 C 521.179688 316.292969 516.710938 318.773438 510.265625 318.773438 C 502.824219 318.773438 492.652344 315.054688 479.503906 307.363281 C 379.039062 250.804688 319.257812 204.914062 241.859375 204.914062 C 149.828125 204.914062 83.347656 252.292969 51.84375 343.085938 C 21.085938 349.535156 0 369.628906 0 400.636719 C 0 439.085938 31.007812 458.929688 63.007812 460.664062 C 86.824219 499.113281 152.558594 533.101562 237.148438 526.152344 L 260.714844 545.75 C 254.511719 548.976562 248.558594 549.96875 241.363281 549.96875 C 224.992188 549.71875 209.363281 544.511719 190.511719 544.511719 C 156.03125 544.511719 131.722656 564.601562 131.722656 594.621094 C 131.722656 637.039062 169.425781 660.851562 225.984375 660.851562 Z M 465.613281 591.640625 C 434.605469 591.640625 415.007812 596.605469 401.117188 596.605469 C 389.953125 596.605469 377.300781 594.867188 364.898438 584.699219 L 254.015625 491.175781 C 174.636719 494.652344 116.339844 473.8125 82.851562 425.191406 C 57.550781 428.167969 39.195312 418.496094 39.195312 397.65625 C 39.195312 378.804688 55.566406 365.660156 83.101562 367.144531 C 108.402344 283.300781 164.21875 244.355469 241.363281 244.355469 C 322.480469 244.355469 405.828125 309.59375 466.355469 343.828125 C 482.980469 353.75 501.085938 356.976562 513.242188 356.976562 C 540.53125 356.976562 561.859375 339.859375 581.210938 305.128906 L 416.246094 203.425781 C 398.882812 192.261719 373.828125 173.660156 373.828125 166.960938 C 373.828125 152.324219 408.0625 141.410156 433.117188 141.410156 C 472.308594 141.410156 505.800781 164.480469 535.066406 201.441406 L 611.226562 292.480469 C 681.425781 289.253906 734.261719 342.835938 734.261719 411.300781 C 734.261719 455.207031 713.925781 468.605469 661.832031 468.605469 C 629.332031 468.605469 593.363281 455.457031 562.359375 435.859375 C 516.960938 447.269531 469.332031 468.851562 430.882812 497.378906 C 425.675781 497.875 421.457031 498.371094 417.488281 498.867188 L 399.628906 455.207031 C 362.171875 365.160156 302.140625 334.402344 241.363281 334.402344 C 231.441406 334.402344 220.03125 334.648438 209.859375 336.882812 C 197.457031 339.609375 192.992188 346.0625 192.992188 354.246094 C 192.992188 363.675781 199.9375 369.875 209.859375 369.628906 C 220.527344 369.128906 227.472656 367.890625 239.628906 367.890625 C 295.9375 367.890625 337.363281 397.90625 371.597656 479.765625 L 395.660156 535.085938 C 414.511719 531.117188 432.371094 528.136719 460.402344 528.136719 C 511.007812 528.136719 561.113281 541.535156 561.113281 575.765625 C 561.113281 588.914062 549.703125 597.84375 528.871094 597.84375 C 504.804688 597.84375 487.445312 591.640625 465.613281 591.640625 Z M 644.46875 394.683594 C 655.378906 394.929688 664.308594 385.253906 664.808594 374.585938 C 665.050781 363.921875 656.867188 354.992188 645.707031 354.742188 C 635.039062 354.496094 625.863281 363.675781 625.613281 374.089844 C 625.117188 385.007812 633.800781 394.433594 644.46875 394.683594 Z M 167.441406 594.867188 C 167.441406 584.945312 174.140625 577.253906 188.527344 577.253906 C 202.667969 577.253906 218.046875 581.222656 235.164062 581.222656 C 257.984375 581.222656 274.109375 579.238281 288.992188 569.070312 L 321.488281 595.859375 C 298.667969 616.449219 264.929688 627.117188 224.746094 627.117188 C 190.015625 627.117188 167.441406 614.710938 167.441406 594.867188 Z M 167.441406 594.867188 " fill-opacity="1" fill-rule="nonzero"/></svg>

<svg xmlns="http://www.w3.org/2000/svg" viewBox="0 0 768 768"><path d="M225.984 660.852c46.387 0 88.559-10.418 123.536-41.922 13.394 9.675 28.277 15.133 50.605 15.133 21.086 0 37.457-6.946 66.73-6.946 27.036 0 40.434 6.946 62.016 6.946 51.098 0 68.961-26.297 68.961-55.32 0-46.884-35.723-74.915-107.168-81.118 25.555-12.402 49.117-22.074 65.492-28.027 29.766 19.843 72.684 31.75 104.438 31.5C727.316 500.605 768 479.766 768 411.05c0-84.34-64-147.844-139.41-148.586l-54.078-73.18c-41.176-55.316-85.336-86.324-141.89-86.324-43.907 0-103.692 24.309-103.692 58.789 0 28.777 32.746 49.363 64.496 69.457 37.21 23.32 87.566 52.344 134.203 79.383-6.45 5.703-10.918 8.183-17.363 8.183-7.442 0-17.614-3.718-30.762-11.41-100.465-56.558-160.246-102.449-237.645-102.449-92.03 0-158.511 47.379-190.015 138.172C21.086 349.536 0 369.629 0 400.636c0 38.45 31.008 58.294 63.008 60.028 23.816 38.45 89.55 72.438 174.14 65.488l23.567 19.598c-6.203 3.227-12.156 4.219-19.352 4.219-16.37-.25-32-5.457-50.851-5.457-34.48 0-58.79 20.09-58.79 50.11 0 42.417 37.704 66.23 94.262 66.23m239.63-69.211c-31.009 0-50.606 4.964-64.497 4.964-11.164 0-23.816-1.738-36.219-11.906l-110.882-93.523c-79.38 3.476-137.676-17.363-171.164-65.985-25.301 2.977-43.657-6.695-43.657-27.535 0-18.851 16.371-31.996 43.907-30.511 25.3-83.844 81.117-122.79 158.261-122.79 81.117 0 164.465 65.239 224.992 99.473 16.625 9.922 34.73 13.149 46.887 13.149 27.29 0 48.617-17.118 67.969-51.848L416.246 203.426c-17.363-11.164-42.418-29.766-42.418-36.465 0-14.637 34.235-25.55 59.29-25.55 39.19 0 72.683 23.07 101.948 60.03l76.16 91.04c70.2-3.227 123.036 50.355 123.036 118.82 0 43.906-20.336 57.304-72.43 57.304-32.5 0-68.469-13.148-99.473-32.746-45.398 11.41-93.027 32.993-131.476 61.52a441 441 0 0 0-13.395 1.488l-17.86-43.66c-37.456-90.047-97.487-120.805-158.265-120.805-9.922 0-21.332.246-31.504 2.48-12.402 2.727-16.867 9.18-16.867 17.364 0 9.43 6.946 15.629 16.867 15.383 10.668-.5 17.614-1.738 29.77-1.738 56.309 0 97.734 30.015 131.969 111.875l24.062 55.32c18.852-3.969 36.711-6.95 64.742-6.95 50.606 0 100.711 13.4 100.711 47.63 0 13.148-11.41 22.078-32.242 22.078-24.066 0-41.426-6.203-63.258-6.203m178.855-196.957c10.91.246 19.84-9.43 20.34-20.098.242-10.664-7.942-19.594-19.102-19.844-10.668-.246-19.844 8.934-20.094 19.348-.496 10.918 8.188 20.344 18.856 20.594M167.44 594.867c0-9.922 6.7-17.613 21.086-17.613 14.141 0 29.52 3.969 46.637 3.969 22.82 0 38.945-1.985 53.828-12.153l32.496 26.79c-22.82 20.59-56.558 31.257-96.742 31.257-34.73 0-57.305-12.406-57.305-32.25m0 0"/></svg>
